www/assets/icons/sports_kabaddi.svg

<svg width="24" height="24" viewBox="0 0 24 24" xmlns="http://www.w3.org/2000/svg" fill='currentColor'><path d="M16.475 5.18994C17.5796 5.18994 18.475 4.29451 18.475 3.18994C18.475 2.08537 17.5796 1.18994 16.475 1.18994C15.3705 1.18994 14.475 2.08537 14.475 3.18994C14.475 4.29451 15.3705 5.18994 16.475 5.18994Z"/><path d="M23.975 12.6899V7.98994L18.925 5.84994C17.955 5.43994 16.835 5.78994 16.275 6.68994L15.275 8.28994C14.605 9.46994 13.365 10.3499 11.865 10.6099L11.925 10.6699C12.615 11.3599 13.445 11.7399 14.385 11.8399C15.185 11.4199 15.905 10.8599 16.475 10.1999L17.075 13.1999L14.975 15.1899V22.6899H16.975V16.6899L19.075 14.6899L20.875 22.6899H22.975L20.795 11.6899L20.175 8.58994L21.975 9.28994V12.6899H23.975Z"/><path d="M10.265 8.89994C10.485 9.04994 10.735 9.13994 10.985 9.18994C11.115 9.20994 11.235 9.22994 11.365 9.22994C11.495 9.22994 11.625 9.21994 11.745 9.18994C11.875 9.16994 11.995 9.12994 12.115 9.07994C12.355 8.97994 12.585 8.83994 12.775 8.63994C13.265 8.14994 13.445 7.46994 13.325 6.83994C13.255 6.46994 13.075 6.09994 12.775 5.80994C12.585 5.61994 12.355 5.46994 12.115 5.36994C11.995 5.31994 11.875 5.27994 11.745 5.25994C11.615 5.23994 11.495 5.21994 11.365 5.21994C11.245 5.21994 11.135 5.22994 11.015 5.24994C10.875 5.26994 10.735 5.30994 10.605 5.35994C10.375 5.46994 10.145 5.61994 9.95502 5.80994C9.65502 6.09994 9.47502 6.46994 9.40502 6.83994C9.28502 7.46994 9.46502 8.14994 9.95502 8.63994C10.045 8.73994 10.155 8.81994 10.265 8.89994Z"/><path d="M11.215 11.3699L9.21502 9.36994C9.11502 9.26994 9.01502 9.18994 8.90502 9.10994C8.68502 8.96994 8.43502 8.86994 8.18502 8.82994C8.05502 8.79994 7.93502 8.78994 7.80502 8.78994C7.29502 8.78994 6.78502 8.98994 6.39502 9.37994L3.05502 12.7199C2.64502 13.1299 2.43502 13.6999 2.47502 14.2599C2.47502 14.4399 2.51502 14.6299 2.58502 14.8099L3.65502 17.7599L0.0250244 21.3899L1.43502 22.8099L5.67502 18.5699V16.3499L6.97502 17.5599V22.6899H8.97502V16.6899L6.85502 14.5699L9.21502 12.2099L9.92502 12.9199C11.215 14.1799 12.895 14.9599 14.955 14.9599L14.815 12.8899C13.315 12.8699 12.115 12.2699 11.215 11.3699Z"/></svg>

<svg xmlns="http://www.w3.org/2000/svg" width="24" height="24" viewBox="0 0 24 24" fill='currentColor'><path d="M16.475 5.19a2 2 0 1 0 0-4 2 2 0 0 0 0 4m7.5 7.5v-4.7l-5.05-2.14c-.97-.41-2.09-.06-2.65.84l-1 1.6c-.67 1.18-1.91 2.06-3.41 2.32l.06.06c.69.69 1.52 1.07 2.46 1.17.8-.42 1.52-.98 2.09-1.64l.6 3-2.1 1.99v7.5h2v-6l2.1-2 1.8 8h2.1l-2.18-11-.62-3.1 1.8.7v3.4zM10.265 8.9c.22.15.47.24.72.29.13.02.25.04.38.04s.26-.01.38-.04c.13-.02.25-.06.37-.11.24-.1.47-.24.66-.44.49-.49.67-1.17.55-1.8-.07-.37-.25-.74-.55-1.03-.19-.19-.42-.34-.66-.44-.12-.05-.24-.09-.37-.11s-.25-.04-.38-.04c-.12 0-.23.01-.35.03-.14.02-.28.06-.41.11-.23.11-.46.26-.65.45-.3.29-.48.66-.55 1.03-.12.63.06 1.31.55 1.8.09.1.2.18.31.26"/><path d="m11.215 11.37-2-2c-.1-.1-.2-.18-.31-.26a1.9 1.9 0 0 0-.72-.28c-.13-.03-.25-.04-.38-.04-.51 0-1.02.2-1.41.59l-3.34 3.34c-.41.41-.62.98-.58 1.54 0 .18.04.37.11.55l1.07 2.95-3.63 3.63 1.41 1.42 4.24-4.24v-2.22l1.3 1.21v5.13h2v-6l-2.12-2.12 2.36-2.36.71.71c1.29 1.26 2.97 2.04 5.03 2.04l-.14-2.07c-1.5-.02-2.7-.62-3.6-1.52"/></svg>
